X: 10222
T: WASHINGTON'S MARCH
C:
%R: march
B: Elias Howe "The Musician's Companion" Part 1 1842 p.22,23 #2
S: http://imslp.org/wiki/The_Musician's_Companion_(Howe,_Elias)
Z: 2015 John Chambers <jc:trillian.mit.edu>
M: C|
L: 1/8
K: G
% - - - - - - - - - - - - - - - - - - - - - - - - -
|:\
G2D>G B2G>B | d2B>d g4 |\
e2g>e d2g>d | d>cB>A B2G2 |\
e2g>e d2g>d | d>cB>A B2G2 |\
B/c/B/c/ dd edcB | A2d>d d2z2 |
B/c/B/c/ dd edcB | A2A>A A2 (3(efg) |\
gfed fed^c | d2d>d d2z2 :|\
|:\
A/B/A/B/ cc dcBA | B/c/B/c/ dd edcB |\
A/B/A/B/ cc dcBA | B2A>A A2z2 |
d/e/d/c/ B/c/B/A/ G2G2 | d=fed e4 |\
e/f/e/d/ ^c/d/c/B/ A2A2 | egfe f3e/f/ |\
g2d>d d2g2 | e2c>c c2e>f |\
ggfe dcBA | G2G>G G2z2 :|
% - - - - - - - - - - - - - - - - - - - - - - - - -

% (Continued from previous page)

% (Continued from previous page)


